X: 174
T: SLIDE: Brosna No. 1
C: C: Trad.; S: Denis Murphy & Julia Clifford
C: Set Leaders: Tania, Anton, Sophie
Z: Anton Zille ed., Oleg Naumov arr.; fidicen at The Session
N: https://thesession.org/members/26966/sets/92423
R: Slide
M: 12/8
L: 1/8
Q: 3/8=130
K: Gmaj
|:"G"D2G G2A BAB d2B|"D"A2D FED A2D FED|
"G"D2G G2A BAB d2B|1 "D"A2D FED "G"G2G GFE:|2 "D"A2D FED "G"G2G GBd||
|:"Em"g2f efg "Bm"f2e d2B|"C"c2B A2B "C"c2d "D"e2f|
"Em"g2f efg "Bm"f2e d2B|1 "C"c2A "D"F2A "G"G2G GBd:|2 "C"c2A "D"F2A "G"G2G GFE||

